X: 1
T: Kikapu
O: Finland
R: polka
Z: John Chambers <jc@trillian.mit.edu>
N: First part not always repeated.
M: 2/4
L: 1/8
K: Am
|: "Am"ed cB | ed cB | c/B/A AA | c/B/A AA \
|  "Dm"ag fe | ag fe | f/e/d dd | f/e/d dd |
|  "E7"e2 Bc | d2 cB | "Am"e2 AB | c2 BA \
|  "Dm"f/e/d dd | f/e/d dd | "E7"ee/e/ ee | e2 z2 :|
K: A
|: "A"e4 | "D"a2 f2 | "A"ee- ec | e4 \
|  cc- cd | "E7"c2 B2 |1 "Am"e4- | "E7"e4 :|2 "A"A2 e2 | a2 z2 :|

%%sep 1 1 500

